src/64x64/places/folder-gruvbox-mix-green-linux.svg

<?xml version="1.0" encoding="UTF-8"?>
<svg width="64" height="64" version="1" xmlns="http://www.w3.org/2000/svg">
 <rect x="4" y="22" width="56" height="36" rx="2.8" ry="2.8" opacity=".2"/>
 <path d="m4 46.2c0 1.551 1.2488 2.8 2.8 2.8h50.4c1.551 0 2.8-1.249 2.8-2.8v-30.4c0-1.551-1.249-2.8-2.8-2.8h-25.2c-4.2 0-5.6-6-9.8-6h-15.4c-1.5512 0-2.8 1.2488-2.8 2.8" fill="#72761e"/>
 <rect x="4" y="20" width="56" height="36" rx="2.8" ry="2.8" opacity=".2"/>
 <rect x="8" y="16" width="48" height="22" rx="2.8" ry="2.8" fill="#dee2b6"/>
 <rect x="4" y="21" width="56" height="36" rx="2.8" ry="2.8" fill="#b0b846"/>
 <path d="m6.8008 7c-1.5512 0-2.8008 1.2496-2.8008 2.8008v1.0002c0-1.5514 1.2496-2.801 2.8008-2.801h15.398c4.2 0 5.601 6 9.801 6h25.199c1.551 0 2.801 1.25 2.801 2.801v-1c0-1.551-1.25-2.801-2.801-2.801h-25.199c-4.2 0-5.601-6-9.801-6z" fill="#dee2b6" opacity=".1"/>
 <path d="m32.787 43.393c-1.601 0.744-3.089 0.736-4.089 0.664-1.192-0.086-2.152-0.412-2.573-0.698-0.26-0.176-0.613-0.108-0.789 0.152s-0.108 0.613 0.152 0.789c0.678 0.459 1.876 0.8 3.128 0.89 0.212 0.016 0.445 0.025 0.696 0.025 1.09 0 2.474-0.104 3.954-0.792 0.284-0.133 0.408-0.47 0.275-0.755-0.132-0.284-0.47-0.408-0.754-0.275zm6.314-0.842c0.054-4.936 0.562-14.262-8.886-13.508-9.328 0.751-6.855 10.605-6.994 13.905-0.123 1.746-0.702 3.88-1.521 6.052h2.521c0.26-0.92 0.45-1.831 0.532-2.698 0.152 0.106 0.315 0.208 0.489 0.306 0.282 0.167 0.525 0.388 0.782 0.622 0.6 0.547 1.281 1.168 2.611 1.245 0.089 5e-3 0.179 8e-3 0.267 8e-3 1.346 0 2.266-0.589 3.006-1.062 0.354-0.227 0.66-0.423 0.948-0.517 0.819-0.256 1.534-0.67 2.068-1.196 0.084-0.082 0.161-0.167 0.234-0.253 0.298 1.091 0.706 2.32 1.158 3.545h5.384c-1.294-1.996-2.627-3.953-2.599-6.449zm-14.977-2.685v-1e-3c-0.093-1.611 0.678-2.965 1.721-3.026s1.964 1.196 2.057 2.806v1e-3c5e-3 0.087 7e-3 0.173 7e-3 0.258-0.33 0.083-0.629 0.204-0.896 0.345l-3e-3 -0.036v-1e-3c-0.089-0.914-0.577-1.604-1.091-1.542-0.513 0.063-0.857 0.855-0.767 1.769 0.039 0.399 0.153 0.755 0.313 1.025-0.04 0.031-0.152 0.113-0.281 0.208-0.097 0.071-0.216 0.157-0.358 0.262-0.388-0.51-0.654-1.242-0.702-2.068zm10.569 3.981c-0.037 0.851-1.151 1.652-2.179 1.973l-6e-3 2e-3c-0.428 0.139-0.809 0.383-1.213 0.641-0.678 0.434-1.38 0.883-2.393 0.883-0.067 0-0.135-2e-3 -0.202-6e-3 -0.928-0.054-1.362-0.449-1.911-0.95-0.29-0.264-0.59-0.538-0.976-0.764l-9e-3 -5e-3c-0.834-0.471-1.352-1.056-1.385-1.567-0.016-0.253 0.097-0.473 0.336-0.652 0.52-0.39 0.869-0.645 1.099-0.814 0.256-0.187 0.334-0.243 0.391-0.298 0.041-0.038 0.085-0.081 0.133-0.128 0.477-0.464 1.276-1.241 2.503-1.241 0.75 0 1.58 0.289 2.464 0.857 0.416 0.271 0.779 0.396 1.238 0.555 0.315 0.109 0.673 0.232 1.152 0.437l8e-3 4e-3c0.446 0.183 0.974 0.518 0.95 1.072zm-0.246-2c-0.086-0.043-0.176-0.084-0.269-0.123-0.432-0.184-0.778-0.31-1.065-0.41 0.159-0.31 0.257-0.697 0.266-1.118 0.022-1.023-0.494-1.854-1.152-1.855-0.659-2e-3 -1.21 0.826-1.232 1.849-1e-3 0.034-1e-3 0.067 0 0.1-0.406-0.186-0.805-0.322-1.195-0.405-2e-3 -0.039-4e-3 -0.077-5e-3 -0.116v-1e-3c-0.038-1.863 1.106-3.406 2.554-3.445s2.653 1.439 2.691 3.303v1e-3c0.017 0.843-0.208 1.618-0.593 2.22z" fill="#3b4439"/>
</svg>

<svg xmlns="http://www.w3.org/2000/svg" width="64" height="64" version="1">
 <rect style="opacity:0.2" width="56" height="36" x="4" y="22" rx="2.8" ry="2.8"/>
 <path style="fill:#72761e" d="M 4,46.2 C 4,47.751 5.2488,49 6.8,49 H 57.2 C 58.751,49 60,47.751 60,46.2 V 15.8 C 60,14.249 58.751,13 57.2,13 H 32 C 27.8,13 26.4,7 22.2,7 H 6.8 C 5.2488,7 4,8.2488 4,9.8"/>
 <rect style="opacity:0.2" width="56" height="36" x="4" y="20" rx="2.8" ry="2.8"/>
 <rect style="fill:#dee2b6" width="48" height="22" x="8" y="16" rx="2.8" ry="2.8"/>
 <rect style="fill:#b0b846" width="56" height="36" x="4" y="21" rx="2.8" ry="2.8"/>
 <path style="opacity:0.1;fill:#dee2b6" d="M 6.8008,7 C 5.2496,7 4,8.2496 4,9.8008 V 10.801 C 4,9.2496 5.2496,8 6.8008,8 H 22.199 C 26.399,8 27.8,14 32,14 H 57.199 C 58.75,14 60,15.25 60,16.801 V 15.801 C 60,14.25 58.75,13 57.199,13 H 32 C 27.8,13 26.399,7 22.199,7 Z"/>
 <path style="fill:#3b4439" d="M 32.787,43.393 C 31.186,44.137 29.698,44.129 28.698,44.057 27.506,43.971 26.546,43.645 26.125,43.359 25.865,43.183 25.512,43.251 25.336,43.511 25.16,43.771 25.228,44.124 25.488,44.3 26.166,44.759 27.364,45.1 28.616,45.19 28.828,45.206 29.061,45.215 29.312,45.215 30.402,45.215 31.786,45.111 33.266,44.423 33.55,44.29 33.674,43.953 33.541,43.668 33.409,43.384 33.071,43.26 32.787,43.393 Z M 39.101,42.551 C 39.155,37.615 39.663,28.289 30.215,29.043 20.887,29.794 23.36,39.648 23.221,42.948 23.098,44.694 22.519,46.828 21.7,49 H 24.221 C 24.481,48.08 24.671,47.169 24.753,46.302 24.905,46.408 25.068,46.51 25.242,46.608 25.524,46.775 25.767,46.996 26.024,47.23 26.624,47.777 27.305,48.398 28.635,48.475 28.724,48.48 28.814,48.483 28.902,48.483 30.248,48.483 31.168,47.894 31.908,47.421 32.262,47.194 32.568,46.998 32.856,46.904 33.675,46.648 34.39,46.234 34.924,45.708 35.008,45.626 35.085,45.541 35.158,45.455 35.456,46.546 35.864,47.775 36.316,49 H 41.7 C 40.406,47.004 39.073,45.047 39.101,42.551 Z M 24.124,39.866 C 24.124,39.866 24.124,39.865 24.124,39.865 24.031,38.254 24.802,36.9 25.845,36.839 26.888,36.778 27.809,38.035 27.902,39.645 27.902,39.646 27.902,39.646 27.902,39.646 27.907,39.733 27.909,39.819 27.909,39.904 27.579,39.987 27.28,40.108 27.013,40.249 27.012,40.237 27.011,40.225 27.01,40.213 V 40.212 C 26.921,39.298 26.433,38.608 25.919,38.67 25.406,38.733 25.062,39.525 25.152,40.439 25.152,40.439 25.152,40.439 25.152,40.439 25.191,40.838 25.305,41.194 25.465,41.464 25.425,41.495 25.313,41.577 25.184,41.672 25.087,41.743 24.968,41.829 24.826,41.934 24.438,41.424 24.172,40.692 24.124,39.866 Z M 34.693,43.847 C 34.656,44.698 33.542,45.499 32.514,45.82 L 32.508,45.822 C 32.08,45.961 31.699,46.205 31.295,46.463 30.617,46.897 29.915,47.346 28.902,47.346 28.835,47.346 28.767,47.344 28.7,47.34 27.772,47.286 27.338,46.891 26.789,46.39 26.499,46.126 26.199,45.852 25.813,45.626 L 25.804,45.621 C 24.97,45.15 24.452,44.565 24.419,44.054 24.403,43.801 24.516,43.581 24.755,43.402 25.275,43.012 25.624,42.757 25.854,42.588 26.11,42.401 26.188,42.345 26.245,42.29 26.286,42.252 26.33,42.209 26.378,42.162 26.855,41.698 27.654,40.921 28.881,40.921 29.631,40.921 30.461,41.21 31.345,41.778 31.761,42.049 32.124,42.174 32.583,42.333 32.898,42.442 33.256,42.565 33.735,42.77 L 33.743,42.774 C 34.189,42.957 34.717,43.292 34.693,43.846 Z M 34.447,41.847 C 34.361,41.804 34.271,41.763 34.178,41.724 33.746,41.54 33.4,41.414 33.113,41.314 33.272,41.004 33.37,40.617 33.379,40.196 V 40.196 C 33.401,39.173 32.885,38.342 32.227,38.341 31.568,38.339 31.017,39.167 30.995,40.19 V 40.19 C 30.994,40.224 30.994,40.257 30.995,40.29 30.589,40.104 30.19,39.968 29.8,39.885 29.798,39.846 29.796,39.808 29.795,39.769 V 39.768 C 29.757,37.905 30.901,36.362 32.349,36.323 33.797,36.284 35.002,37.762 35.04,39.626 V 39.627 C 35.057,40.47 34.832,41.245 34.447,41.847 Z"/>
</svg>
